X: 19270
T: Ivory Lady
R: reel
M: 4/4
K: Gmajor
|:Gdeg d2 {c/}BA|{c/}BG ~G2 ed {c/}BA|G2 cA BG ~G2|cB{c/}AG ABGD|
Gdeg d2 {c/}BA|{c/}BG ~G2 ed Bg|ezcBcdde|c{c/}BA{c/}B AG ~G2:|
|:Bdde g2 ed|Bged eg~g2|ez ab ~a3 g|eaz gabge|
Bdde g2 ed|Bged eg~g2|G2 cBcdde|c{c/}BA{c/}BA~G3:|

